X: 1
T: Mr. Brennan's Psychological Problems
M: 4/4
L: 1/8
R: reel
K: Bmin
FB ~B2 ~f3 g|fedf edBA|FB ~B2 FBdf|edBA ~ B3A|
FB ~B2 ~f3 g|{g}fedf edBA|FB ~B2 FBdf|1edBA ~ B3A:|2edBA B2ba||
|:bffe ~f3 g|fedf edBA|bffe ~f3g|e{f}ede fa ~a2|
bffe ~f3g|fedf edBA|FB ~B2 FBdf|1edBA B2fa:|2edBA B3|]
